!!!!SEGMENT: pl-wtm--r-1143-1--004_dobrzynski-ignacy-feliks--studium-na-temat-oryginalny-op-62-messo-vivo.krn
!!!cenid: 18xx:1751
!!!COM: Dobrzyński, Ignacy Feliks
!!!COM-rismid: pe30020642
!!!CDT: 1807/02/15-1867/10/09
!!!CNT: Polish
!!!OPR: Studium na temat oryginalny op. 62
!!!OTL: Messo vivo
!!!OMV: 004
!!!PDT: 1867
!!!AGN: Secular; Variations
!!!SMS-siglum: PL-Wtm
!!!SMS-shelfmark: R 1143/1
!!!SMS-shelfwork: 001-004 M
!!!SMS-variant:
!!!SMS-altvar:
!!!NIFC-rismid: 1001057385
!!!URL-scan: http://repozytorium.nifc.pl/skany/pl-wtm-nut--r1143
!!!ONB-nifc: UWAGA: numeracja części zgodna z numerami w źródle. Na podstawie partytury (folder r1143-1)
**kern	**dynam	**kern	**dynam	**kern	**dynam	**kern	**dynam
*part4	*part4	*part3	*part3	*part2	*part2	*part1	*part1
*staff4	*	*staff3	*	*staff2	*	*staff1	*
*I"Violoncello	*	*I"Viola	*	*I"Violino Secondo	*	*I"Violino Primo.	*
*I'vln	*	*I'vla	*	*I'vn 2	*	*I'vn 1	*
*clefF4	*	*clefC3	*	*clefG2	*	*clefG2	*
*k[f#c#g#]	*	*k[f#c#g#]	*	*k[f#c#g#]	*	*k[f#c#g#]	*
*A:	*	*A:	*	*A:	*	*A:	*
*M4/4	*	*M4/4	*	*M4/4	*	*M4/4	*
*met(c)	*	*met(c)	*	*met(c)	*	*met(c)	*
=1	=1	=1	=1	=1	=1	=1	=1
!	!	!	!	!	!	!LO:TX:b:i:t=ma espressivo	!
!	!	!	!	!	!	!LO:TX:a:i:t=Messo vivo	!
!	!	!	!LO:DY:t=p.	!	!	!LO:TX:a:i:t= No 4.	!
4r	p	(2c#\	p	1rb	.	(>2e/	p
[2.A^<\	.	.	.	.	.	.	.
.	.	4d\	.	.	.	4f#/	.
.	.	4B\)	.	.	.	4g#/)	.
=2	=2	=2	=2	=2	=2	=2	=2
1A]	.	(4c#\	.	4r	.	(4a\	.
.	.	2e\	.	(>4g#/	.	4b\	.
.	.	.	.	[>2a/	.	2cc#\)	.
.	.	4gn'\)	.	.	.	.	.
=3	=3	=3	=3	=3	=3	=3	=3
(4D\	.	(2f#\	.	2.a/]	.	(2dd\	.
4F#\	.	.	.	.	.	.	.
2A\)	.	4e\	.	.	.	4cc#\	.
.	.	4c#\)	.	4e/)	.	4a\)	.
=4	=4	=4	=4	=4	=4	=4	=4
(4E\	.	(2d^<\	.	(>2g#^/	.	(2b^<\	.
4EE/	.	.	.	.	.	.	.
4AA/)	.	4c#\)	.	4a/)	.	4a\	.
4r	.	4r	.	4r	.	4e/)	.
=5	=5	=5	=5	=5	=5	=5	=5
4r	.	2.F#/	.	(>2c#/	<	(>2e/	<
(>4AA/	.	.	.	.	.	.	.
4D/	.	.	<	4d/	.	4f#/	.
4C#/)	.	[4c#\	.	4e#X/)	.	4g#/)	.
=6	=6	=6	=6	=6	=6	=6	=6
(4F#\	.	4c#\]	.	(>4f#/	.	(4a\	.
4E\	.	2.e\	.	4g#/	.	4b\	.
4A\	.	.	.	4a/	[	2cc#\)	[
4A#X\)	.	.	[[	4gn/)	.	.	.
=7	=7	=7	=7	=7	=7	=7	=7
(4B\	.	4d\	f >	(>2f#/	f >	(2dd\	f >
4BB/	.	2B/	.	.	.	.	.
4C#/	.	.	.	4e#X/	.	4cc#\	.
4F#\)	.	4A/	p ]	4f#/)	p ]	4a\)	p ]
!!LO:LB:g=original
=8	=8	=8	=8	=8	=8	=8	=8
(4Fn^\	.	(2G#^>/	.	(2d^>/	.	(2b^\	.
4E\	.	.	.	.	.	.	.
4AA/)	.	4A/)	.	4c#/)	.	4a\)	.
4r	.	4r	.	4r	.	4r	.
=9	=9	=9	=9	=9	=9	=9	=9
!	!	!	!	!	!	!LO:TX:b:i:t=espres(sivo)&colon;	!
4r	.	(>2c#/	.	(>[1c#	.	(>2a/	p
(4F#\	.	.	.	.	.	.	.
4E#X\	.	4B/	.	.	.	4g#/	.
4F#\)	.	4A/)	.	.	.	4f#/)	.
=10	=10	=10	=10	=10	=10	=10	=10
1C#	.	(>4G#/	.	2.c#/]	.	(>4e#X/	.
.	.	4A/	.	.	.	4f#/	.
.	.	2B/)	.	.	.	2g#/)	.
.	.	.	.	4e#X/)	.	.	.
=11	=11	=11	=11	=11	=11	=11	=11
(2F#\	.	(>2.A/	<	(>2.f#/	<	(4a\	<
.	.	.	.	.	.	4cc#\)	.
2BB/)	.	.	.	.	.	2dd#Xtt\	.
.	.	8B/L	.	8g#/L	.	.	.
.	.	8A/J)	.	8f#/J)	[	.	[
.	.	.	.	.	.	(16qqcc#/LL	.
.	.	.	.	.	.	16qqdd#/JJ)	.
=12	=12	=12	=12	=12	=12	=12	=12
1E	.	(4G#/	[	(4e/	>	2ee\	>
.	.	8B/L	>	8g#/L	.	.	.
.	.	8c#/J	.	8a/J)	.	.	.
.	.	4d\	.	(4b/	.	2e/	]]
.	.	8c#\L	.	8a/L	.	.	.
.	.	8B\J)	]]	8g#/J)	]]	.	.
=13	=13	=13	=13	=13	=13	=13	=13
(2AA/	.	4c#/	p	(>4a/	p	(>2e/	p
.	.	2A^>/	.	4c#/	.	.	.
4D/	.	.	.	4d/	.	4f#/	<
4C#/)	.	[4c#^\	<	4e#X/)	<	4g#/)	.
=14	=14	=14	=14	=14	=14	=14	=14
(4F#\	.	4c#\]	.	(>4f#/	.	(4a\	.
4E\	.	(2.e\	[[	4g#/	.	4b\	.
4AA/	.	.	.	4a/	.	2cc#\)	[[
4AA#X/)	.	.	.	4gn/)	[[	.	.
=15	=15	=15	=15	=15	=15	=15	=15
(2BB/	.	4d\	f >	(>2f#/	f >	(2dd\	f >
.	.	4B\	.	.	.	.	.
4C#/	.	4G#/	.	4e#X/	.	4cc#\	.
4F#\)	.	4c#/)	p ]	4f#/)	p ]	4a\)	p ]
!!LO:LB:g=original
=16	=16	=16	=16	=16	=16	=16	=16
(4Fn^\	.	(2G#/	.	(>2d/	.	(2b^\	.
4E\	.	.	.	.	.	.	.
4AA/)	.	4A/)	.	4c#/)	.	4a\)	.
4r	.	4r	.	4r	.	4r	.
=17	=17	=17	=17	=17	=17	=17	=17
!	!	!	!	!	!	!LO:TX:b:i:t=espres(sivo)&colon;	!
(4F#\	.	(2c#/	p	(>2f#/	p	(>2a/	p
4FF#/	.	.	.	.	.	.	.
4BB/	.	4B/	.	4d/	.	4g#/	.
4BB#X/)	.	4A/)	.	4d#X/)	.	4f#/)	.
=18	=18	=18	=18	=18	=18	=18	=18
1C#	.	2.G#/	.	(>4c#/	.	(>4e#X/	.
.	.	.	.	4d#X/	.	4f#/	.
.	.	.	.	2e#X/)	.	2g#/)	.
.	.	[>4c#/	.	.	.	.	.
=19	=19	=19	=19	=19	=19	=19	=19
(2F#\	.	4c#/]	<	(>2.f#/	<	(4a\	<
.	.	(2A/	.	.	.	4cc#\)	.
2BB/)	.	.	.	.	.	2dd#Xtt\	.
.	.	8B/L	.	8g#/L	.	.	.
.	.	8A/J)	.	8f#/J)	[	.	[
.	.	.	.	.	.	16qqcc#/LL	.
.	.	.	.	.	.	16qqdd#/JJ	.
=20	=20	=20	=20	=20	=20	=20	=20
1E	.	(>4G#/	[	(>4e/	>	(2ee\	>
.	.	8B/L	>	8g#/L	.	.	.
.	.	8c#/J	.	8a/J	.	.	.
.	.	4d/	.	4b/	.	4e/)	.
.	.	8c#/L	.	8a/L	.	4r	]]
.	.	8B/J)	.	8g#/J)	]]	.	.
=21	=21	=21	=21	=21	=21	=21	=21
(2AA/	.	4c#/	]	(>4a/	p	(>2e/	p
.	.	2A/	p	4c#/	<	.	.
4D/	.	.	<	4d/	.	4f#/	<
4C#/)	.	[4c#/	.	4e#X/)	.	4g#/)	.
=22	=22	=22	=22	=22	=22	=22	=22
(4F#\	.	4c#/]	.	(>4f#/	.	(4a\	.
4E\	.	2.e\	[[	4g#/	.	4b\	.
4AA/	.	.	.	4a/	.	2cc#\)	[[
4AA#X/)	.	.	.	4gn/)	[[	.	.
=23	=23	=23	=23	=23	=23	=23	=23
(2BB\	.	(4d\	f >	(>2f#/	f >	(2dd\	f >
.	.	4B/	.	.	.	.	.
4C#\	.	4G#/	.	4e#X/	.	4cc#\	.
4F#\)	.	4c#/)	p ]	4f#/)	p ]	4a\)	p ]
=24	=24	=24	=24	=24	=24	=24	=24
!	!LO:HP:a	!	!LO:HP:a	!	!	!	!
(4Fn\	>	(2G#/	>	(>2d/	>	(2b\	>
4E\	]	.	]	.	]	.	]
4AA/)	.	4A/)	.	4c#/)	.	4a\)	.
4r	.	4r	.	4r	.	4r	.
!!LO:PB:g=original
==	==	==	==	==	==	==	==
*-	*-	*-	*-	*-	*-	*-	*-
!!!system-decoration: [(s1,s2,s3,s4)]
!!!RDF**kern: < = below
!!!RDF**kern: > = above
!!!ENC: Marta Chmielewska
!!!END: 2021-04-12
!!!ENC: Andrzej Gręziak
!!!END: 2021-04-06
